X:17918
T:Turnpike Gate. JC.164
M:6/8
L:1/8
Q:180
S:John Clare,Poet,Helpstone (1793-1864)
R:Jig
O:England
A:Northamptonshire
N:
Z:P Headford
K:D
ded|f2dg2e|a2f ded|e2gB2d|c2A ded|!
f2dg2e|a2f2 ded|e2"crot in MS"g ABd|"crot"d3:|!
|:aba|a2ff2f|g2ee2e|f2d dcd|ecAA2A|!
dcd ede|fef gfg|aba agf|f2"D.C."e:|]
